X:2
T:Carolan's Concerto
T:Mrs. Poer
T:Mrs. Power
T:O'Carolan's Concerto
M:4/4
L:1/8
R:reel
K:Dmaj
(3ABc|:"D"d2 dd d2 cB|"A"ABGA F2A2|"A"E2A2"D"D2A2|"Bm"Bc"D"de dcBA|
d2a2 fgaf|"A7"efge fgaf|ga"Bm"bg fdfa|"A7"gfed dcBA|
"Bm"BdBd "G"gdgd|"D"Ad Ad fAfA|"G"GB"Em"GB efed|"A7"c2 Bc A3G|
"F#m"FG"A7"AF EFGE|"F#m"FG"A7"AF GABG|"A"A2 "D"d2 fedc|d6 :|
(3ABc|:"D"d2"Em"b2 agfe|"D"d2"A"a2c2a2|"G"B2 gB ABcd|"A7"ecBA"D"d2 df|
"A"edcB caaa|"G"Bggg "D"Afff|"A"edcB caaa|"G"Bggg bgbg|
"D"afaf "A"edcB|cA"Em"BG AFGE|"D"DAFA DAFA|"Em"GEBE GEBE|
"D"FAdc BAGF|"A7"EFGA Bcde|A2"D"d2 fedc|d6:|
W:Variation from Kevo32A
K: Dmaj
(3ABc|:d2 dd d2 cB|ABGA F2A2|E2A2 D2A2|Bcde dcBA|
d2a2 fgaf|efge fgaf|gabg fdfa|gfed dcBA|
BdBd gdgd|AdAd fAfA|GBGB efed|c2Bc A3G|
FGAF EFGE|FGAF GABG|A2d2 fedc|d6:|
(3ABc|:d2b2 agfe|d2a2 c2a2|B2gB ABcd|ecBA d2df|
edcB caaa|Bggg Afff|edcB caaa|Bggg bgbg|
afaf edcB|cABG AFGE|DAFA DAFA|GEBE GEBE|
FAdc BAGF|EFGA Bcde|A2d2 fedc|d6:|

